src/lib/packages/icons/src/assets/filled/behance.svg

<svg width="24" height="24" viewBox="0 0 24 24" fill="none" xmlns="http://www.w3.org/2000/svg">
<path d="M10.2 11.5202C11.19 11.0502 11.7 10.3302 11.7 9.22025C11.7 7.03025 10.07 6.49023 8.17998 6.49023H2.98999V17.4902H8.31999C10.32 17.4902 12.2 16.5302 12.2 14.3002C12.2 12.9202 11.55 11.9002 10.19 11.5202H10.2ZM5.42998 8.10025H7.70999C8.58999 8.10025 9.37999 8.35024 9.37999 9.37024C9.37999 10.3102 8.75998 10.6902 7.89998 10.6902H5.42998V8.11023V8.10025ZM8.02998 15.4002H5.42998V12.3503H8.07999C9.14999 12.3503 9.82999 12.8002 9.82999 13.9302C9.82999 15.0602 9.01998 15.4002 8.02998 15.4002ZM19.23 7.88025H14.74V6.79025H19.23V7.88025ZM20.99 13.3903C20.99 11.0203 19.6 9.04025 17.09 9.04025C14.58 9.04025 12.99 10.8802 12.99 13.2802C12.99 15.6802 14.56 17.4902 17.09 17.4902C19 17.4902 20.24 16.6302 20.84 14.8002H18.9C18.69 15.4802 17.83 15.8503 17.16 15.8503C15.87 15.8503 15.19 15.0902 15.19 13.8102H20.97C20.97 13.6802 20.99 13.5402 20.99 13.4002V13.3903ZM15.19 12.4102C15.26 11.3602 15.96 10.7003 17.02 10.7003C18.08 10.7003 18.68 11.3502 18.78 12.4102H15.2H15.19Z" fill="currentColor"/>
</svg>

<svg xmlns="http://www.w3.org/2000/svg" width="24" height="24" fill="none"><path fill="currentColor" d="M10.2 11.52c.99-.47 1.5-1.19 1.5-2.3 0-2.19-1.63-2.73-3.52-2.73H2.99v11h5.33c2 0 3.88-.96 3.88-3.19 0-1.38-.65-2.4-2.01-2.78h.01ZM5.43 8.1h2.28c.88 0 1.67.25 1.67 1.27 0 .94-.62 1.32-1.48 1.32H5.43V8.1Zm2.6 7.3h-2.6v-3.05h2.65c1.07 0 1.75.45 1.75 1.58 0 1.13-.81 1.47-1.8 1.47Zm11.2-7.52h-4.49V6.79h4.49v1.09Zm1.76 5.51c0-2.37-1.39-4.35-3.9-4.35s-4.1 1.84-4.1 4.24c0 2.4 1.57 4.21 4.1 4.21 1.91 0 3.15-.86 3.75-2.69H18.9c-.21.68-1.07 1.05-1.74 1.05-1.29 0-1.97-.76-1.97-2.04h5.78c0-.13.02-.27.02-.41v-.01Zm-5.8-.98c.07-1.05.77-1.71 1.83-1.71s1.66.65 1.76 1.71h-3.59Z"/></svg>
